src/assets/img/components/radio.svg

<?xml version="1.0" encoding="UTF-8" standalone="no"?>
<svg width="99px" height="89px" viewBox="0 0 99 89" version="1.1" xmlns="http://www.w3.org/2000/svg" xmlns:xlink="http://www.w3.org/1999/xlink">
    <title>Radio Component</title>
    <desc>Radio Component</desc>
    <defs>
        <circle id="path-1" cx="11" cy="43" r="10"></circle>
        <mask id="mask-2" maskContentUnits="userSpaceOnUse" maskUnits="objectBoundingBox" x="0" y="0" width="20" height="20" fill="white">
            <use xlink:href="#path-1"></use>
        </mask>
    </defs>
    <g id="Page-1" stroke="none" stroke-width="1" fill="none" fill-rule="evenodd">
        <g id="Material-Internal-Landing-Page-(Components)" transform="translate(-124.000000, -1060.000000)">
            <g id="radio" transform="translate(125.000000, 1061.000000)">
                <path d="M42.6486175,16.36352 L93.1523964,16.36352 L97.3341564,16.36352 L97.3341564,8 L93.1523964,8 L42.6486175,8 L38.4668575,8 L38.4668575,16.36352 L42.6486175,16.36352 Z M42.6486175,49.36352 L93.1523964,49.36352 L97.3341564,49.36352 L97.3341564,41 L93.1523964,41 L42.6486175,41 L38.4668575,41 L38.4668575,49.36352 L42.6486175,49.36352 Z M42.6486175,81.36352 L93.1523964,81.36352 L97.3341564,81.36352 L97.3341564,73 L93.1523964,73 L42.6486175,73 L38.4668575,73 L38.4668575,81.36352 L42.6486175,81.36352 Z" id="text" fill="#D8D8D8"></path>
                <path d="M10.875,21.75 C16.8810967,21.75 21.75,16.8810967 21.75,10.875 C21.75,4.86890335 16.8810967,0 10.875,0 C4.86890335,0 0,4.86890335 0,10.875 C0,16.8810967 4.86890335,21.75 10.875,21.75 Z M10.875,53.75 C16.8810967,53.75 21.75,48.8810967 21.75,42.875 C21.75,36.8689033 16.8810967,32 10.875,32 C4.86890335,32 0,36.8689033 0,42.875 C0,48.8810967 4.86890335,53.75 10.875,53.75 Z" id="select" stroke="#CED2D4" stroke-width="1.9008"></path>
                <circle id="oval" stroke="#CED2D4" stroke-width="1.9008" cx="10.875" cy="75.875" r="10.875"></circle>
                <use id="oval" stroke="#FFFFFF" mask="url(#mask-2)" stroke-width="3" fill="#00BCD4" xlink:href="#path-1"></use>
            </g>
        </g>
    </g>
</svg>

<svg width="99" height="89" viewBox="0 0 99 89" xmlns="http://www.w3.org/2000/svg" xmlns:xlink="http://www.w3.org/1999/xlink"><defs><circle id="a" cx="11" cy="43" r="10"/><mask id="b" x="0" y="0" width="20" height="20" fill="#fff"><use xlink:href="#a"/></mask></defs><g transform="translate(1 1)" fill="none" fill-rule="evenodd"><path d="M42.649 16.364h54.685V8H38.467v8.364h4.182zm0 33h54.685V41H38.467v8.364h4.182zm0 32h54.685V73H38.467v8.364h4.182z" fill="#D8D8D8"/><path d="M10.875 21.75c6.006 0 10.875-4.869 10.875-10.875S16.881 0 10.875 0 0 4.869 0 10.875 4.869 21.75 10.875 21.75zm0 32c6.006 0 10.875-4.869 10.875-10.875S16.881 32 10.875 32 0 36.869 0 42.875 4.869 53.75 10.875 53.75z" stroke="#CED2D4" stroke-width="1.901"/><circle stroke="#CED2D4" stroke-width="1.901" cx="10.875" cy="75.875" r="10.875"/><use stroke="#FFF" mask="url(#b)" stroke-width="3" fill="#00BCD4" xlink:href="#a"/></g></svg>
